kiosk-igrinskij/images/d0cdb9fc4c99b3ae54453131a8886b71.svg

<svg fill="none" height="14" viewBox="0 0 18 14" width="18" xmlns="http://www.w3.org/2000/svg"><g fill="#f1e9dd"><path d="m1.01436 8.19872c.16003 1.18738 1.13239 2.08288 2.26202 2.08288h9.59942c1.2599 0 2.285-1.0886 2.285-2.42692v-4.21355c0-.34544-.2639-.62557-.5891-.62557h-.291c-.9291 0-1.8157.30978-2.5634.89574-.6282.49254-1.11 1.14189-1.4104 1.89629h-3.71914c-.28157-3.25211-2.86437-5.80759-5.998752-5.80759-.170744 0-.333185.0787245-.445089.215853-.1119035.137001-.1620793.31886-.13801403.498418z"/><path d="m.857141 12.463v1.2513h12.310459c2.6646 0 4.8324-2.3024 4.8324-5.13269 0-.0034 0-.0068-.0001-.01018h-1.1779c-.0001.00338-.0001.00678-.0001.01018 0 2.14009-1.6393 3.88139-3.6543 3.88139h-1.8602v-.93h-1.1781v.93h-4.3002v-.93h-1.17812v.93z"/></g></svg>

<svg width="18" height="14" viewBox="0 0 18 14" fill="none" xmlns="http://www.w3.org/2000/svg">
<path d="M1.01436 8.19872C1.17439 9.3861 2.14675 10.2816 3.27638 10.2816H12.8758C14.1357 10.2816 15.1608 9.193 15.1608 7.85468V3.64113C15.1608 3.29569 14.8969 3.01556 14.5717 3.01556H14.2807C13.3516 3.01556 12.465 3.32534 11.7173 3.9113C11.0891 4.40384 10.6073 5.05319 10.3069 5.80759H6.58776C6.30619 2.55548 3.72339 0 0.589008 0C0.418264 0 0.255823 0.0787245 0.143919 0.215853C0.0320155 0.352854 -0.0181603 0.534713 0.00590497 0.714271L1.01436 8.19872Z" fill="#F1E9DD"/>
<path d="M0.857141 12.463V13.7143H13.1676C15.8322 13.7143 18 11.4119 18 8.58161C18 8.57821 18 8.57481 17.9999 8.57143H16.822C16.8219 8.57481 16.8219 8.57821 16.8219 8.58161C16.8219 10.7217 15.1826 12.463 13.1676 12.463H11.3074V11.533H10.1293V12.463H5.8291V11.533H4.65098V12.463H0.857141Z" fill="#F1E9DD"/>
</svg>
